src/web/assets/img/image-edit-panel/magic-wand.svg

<svg width="20" height="20" viewBox="0 0 20 20" fill="none" xmlns="http://www.w3.org/2000/svg">
  <g clip-path="url(#clip0_6961_2528)">
    <path
      d="M4.06295 7.26403C4.73144 7.26403 5.27335 7.80595 5.27335 8.47443C5.27335 9.14292 4.73144 9.68484 4.06295 9.68484L2.98241 9.68484C2.31393 9.68484 1.77201 9.14292 1.77201 8.47443C1.77201 7.80595 2.31393 7.26403 2.98241 7.26403L4.06295 7.26403Z"
      fill="black" fill-opacity="0.85" stroke="white" stroke-width="0.8" stroke-linecap="round"
      stroke-linejoin="round" />
    <path
      d="M6.65176 12.3509C7.12445 11.8782 7.12445 11.1118 6.65176 10.6392C6.17907 10.1665 5.41268 10.1665 4.93999 10.6392L4.17594 11.4032C3.70324 11.8759 3.70324 12.6423 4.17593 13.115C4.64863 13.5877 5.41501 13.5877 5.8877 13.115L6.65176 12.3509Z"
      fill="black" fill-opacity="0.85" stroke="white" stroke-width="0.8" stroke-linecap="round"
      stroke-linejoin="round" />
    <path
      d="M13.5283 5.47435C14.0009 5.00166 14.0009 4.23528 13.5283 3.76259C13.0556 3.28989 12.2892 3.28989 11.8165 3.76259L11.0524 4.52664C10.5797 4.99933 10.5797 5.76572 11.0524 6.23841C11.5251 6.7111 12.2915 6.7111 12.7642 6.23841L13.5283 5.47435Z"
      fill="black" fill-opacity="0.85" stroke="white" stroke-width="0.8" stroke-linecap="round"
      stroke-linejoin="round" />
    <path
      d="M10.2018 3.54626C10.2018 4.21474 9.65984 4.75666 8.99136 4.75666C8.32287 4.75666 7.78095 4.21474 7.78095 3.54626L7.78095 2.46572C7.78095 1.79723 8.32287 1.25532 8.99136 1.25532C9.65984 1.25532 10.2018 1.79723 10.2018 2.46572L10.2018 3.54626Z"
      fill="black" fill-opacity="0.85" stroke="white" stroke-width="0.8" stroke-linecap="round"
      stroke-linejoin="round" />
    <path
      d="M5.99972 3.87452C6.47241 4.34722 6.47241 5.1136 5.99972 5.58629C5.52703 6.05898 4.76064 6.05898 4.28795 5.58629L3.5239 4.82224C3.0512 4.34954 3.0512 3.58316 3.5239 3.11047C3.99659 2.63778 4.76297 2.63778 5.23566 3.11047L5.99972 3.87452Z"
      fill="black" fill-opacity="0.85" stroke="white" stroke-width="0.8" stroke-linecap="round"
      stroke-linejoin="round" />
    <mask id="path-6-outside-1_6961_2528" maskUnits="userSpaceOnUse" x="3.25026" y="2.85777" width="16.9706"
      height="16.9706" fill="black">
      <rect fill="white" x="3.25026" y="2.85777" width="16.9706" height="16.9706" />
      <path fill-rule="evenodd" clip-rule="evenodd"
        d="M6.223 6.249C5.37378 7.09822 5.37378 8.47509 6.223 9.32432L13.2396 16.3409C14.0888 17.1902 15.4657 17.1902 16.3149 16.3409L16.7543 15.9016C17.6035 15.0524 17.6035 13.6755 16.7543 12.8263L16.6274 12.6994C16.6249 12.6969 16.6225 12.6944 16.62 12.692L13.984 10.056C13.9815 10.0535 13.979 10.051 13.9765 10.0485L9.73765 5.80967C8.88843 4.96044 7.51156 4.96044 6.66233 5.80967L6.223 6.249ZM10.2652 10.7306C10.3267 10.6486 10.3948 10.5699 10.4694 10.4953L10.9087 10.056C10.9833 9.98141 11.0619 9.91338 11.1439 9.85191L8.41966 7.12766C8.29834 7.00634 8.10165 7.00634 7.98033 7.12766L7.541 7.56699C7.41968 7.68831 7.41968 7.88501 7.541 8.00632L10.2652 10.7306Z" />
    </mask>
    <path fill-rule="evenodd" clip-rule="evenodd"
      d="M6.223 6.249C5.37378 7.09822 5.37378 8.47509 6.223 9.32432L13.2396 16.3409C14.0888 17.1902 15.4657 17.1902 16.3149 16.3409L16.7543 15.9016C17.6035 15.0524 17.6035 13.6755 16.7543 12.8263L16.6274 12.6994C16.6249 12.6969 16.6225 12.6944 16.62 12.692L13.984 10.056C13.9815 10.0535 13.979 10.051 13.9765 10.0485L9.73765 5.80967C8.88843 4.96044 7.51156 4.96044 6.66233 5.80967L6.223 6.249ZM10.2652 10.7306C10.3267 10.6486 10.3948 10.5699 10.4694 10.4953L10.9087 10.056C10.9833 9.98141 11.0619 9.91338 11.1439 9.85191L8.41966 7.12766C8.29834 7.00634 8.10165 7.00634 7.98033 7.12766L7.541 7.56699C7.41968 7.68831 7.41968 7.88501 7.541 8.00632L10.2652 10.7306Z"
      fill="black" fill-opacity="0.85" />
    <path
      d="M6.223 9.32432L5.65732 9.89L6.223 9.32432ZM6.223 6.249L6.78869 6.81468L6.223 6.249ZM13.2396 16.3409L13.8053 15.7752L13.2396 16.3409ZM16.3149 16.3409L15.7493 15.7752L15.7493 15.7752L16.3149 16.3409ZM16.7543 12.8263L17.32 12.2606L16.7543 12.8263ZM16.6274 12.6994L16.0617 13.2651L16.059 13.2624L16.6274 12.6994ZM16.62 12.692L16.0543 13.2577L16.62 12.692ZM13.984 10.056L14.5497 9.4903L13.984 10.056ZM13.9765 10.0485L13.4135 10.6169L13.4108 10.6142L13.9765 10.0485ZM9.73765 5.80967L10.3033 5.24398L9.73765 5.80967ZM6.66233 5.80967L6.09665 5.24398L6.66233 5.80967ZM10.4694 10.4953L9.90367 9.92963L10.4694 10.4953ZM10.2652 10.7306L10.9053 11.2105C10.7662 11.396 10.5534 11.5121 10.322 11.5286C10.0907 11.545 9.86357 11.4603 9.69956 11.2963L10.2652 10.7306ZM10.9087 10.056L11.4744 10.6217L10.9087 10.056ZM11.1439 9.85191L11.7096 9.28622C11.8736 9.45022 11.9583 9.67733 11.9419 9.90868C11.9254 10.14 11.8094 10.3529 11.6238 10.492L11.1439 9.85191ZM8.41966 7.12766L7.85397 7.69335L8.41966 7.12766ZM7.98033 7.12766L7.41464 6.56198L7.41464 6.56198L7.98033 7.12766ZM7.541 7.56699L8.10668 8.13268L8.10668 8.13268L7.541 7.56699ZM7.541 8.00632L6.97531 8.57201L7.541 8.00632ZM5.65732 9.89C4.49567 8.72836 4.49567 6.84496 5.65732 5.68331L6.78869 6.81468C6.25188 7.35149 6.25188 8.22183 6.78869 8.75863L5.65732 9.89ZM12.6739 16.9066L5.65732 9.89L6.78869 8.75863L13.8053 15.7752L12.6739 16.9066ZM16.8806 16.9066C15.719 18.0683 13.8356 18.0683 12.6739 16.9066L13.8053 15.7752C14.3421 16.3121 15.2124 16.3121 15.7493 15.7752L16.8806 16.9066ZM17.32 16.4673L16.8806 16.9066L15.7493 15.7752L16.1886 15.3359L17.32 16.4673ZM17.32 12.2606C18.4816 13.4222 18.4816 15.3056 17.32 16.4673L16.1886 15.3359C16.7254 14.7991 16.7254 13.9288 16.1886 13.392L17.32 12.2606ZM17.1931 12.1337L17.32 12.2606L16.1886 13.392L16.0617 13.2651L17.1931 12.1337ZM16.059 13.2624C16.0575 13.2608 16.0559 13.2592 16.0543 13.2577L17.1857 12.1263C17.189 12.1297 17.1924 12.133 17.1957 12.1364L16.059 13.2624ZM16.0543 13.2577L13.4183 10.6217L14.5497 9.4903L17.1857 12.1263L16.0543 13.2577ZM13.4183 10.6217C13.4167 10.6201 13.4151 10.6185 13.4135 10.6169L14.5395 9.48018C14.5429 9.48354 14.5463 9.48691 14.5497 9.4903L13.4183 10.6217ZM10.3033 5.24398L14.5422 9.48286L13.4108 10.6142L9.17197 6.37535L10.3033 5.24398ZM6.09665 5.24398C7.25829 4.08234 9.14169 4.08233 10.3033 5.24398L9.17197 6.37535C8.63516 5.83854 7.76483 5.83854 7.22802 6.37535L6.09665 5.24398ZM5.65732 5.68331L6.09665 5.24398L7.22802 6.37535L6.78869 6.81468L5.65732 5.68331ZM11.035 11.061C10.9873 11.1087 10.9442 11.1587 10.9053 11.2105L9.62516 10.2507C9.70931 10.1384 9.8022 10.0311 9.90367 9.92963L11.035 11.061ZM11.4744 10.6217L11.035 11.061L9.90367 9.92963L10.343 9.4903L11.4744 10.6217ZM11.6238 10.492C11.572 10.5308 11.5221 10.574 11.4744 10.6217L10.343 9.4903C10.4445 9.38884 10.5518 9.29597 10.664 9.21183L11.6238 10.492ZM10.5782 10.4176L7.85397 7.69335L8.98534 6.56197L11.7096 9.28622L10.5782 10.4176ZM7.85397 7.69335C8.04508 7.88445 8.35491 7.88445 8.54601 7.69335L7.41464 6.56198C7.84838 6.12824 8.55161 6.12824 8.98534 6.56197L7.85397 7.69335ZM8.54601 7.69335L8.10668 8.13268L6.97531 7.00131L7.41464 6.56198L8.54601 7.69335ZM8.10668 8.13268C8.29778 7.94158 8.29778 7.63174 8.10668 7.44064L6.97531 8.57201C6.54157 8.13827 6.54157 7.43504 6.97531 7.00131L8.10668 8.13268ZM8.10668 7.44064L10.8309 10.1649L9.69956 11.2963L6.97531 8.57201L8.10668 7.44064Z"
      fill="white" mask="url(#path-6-outside-1_6961_2528)" />
  </g>
  <defs>
    <clipPath id="clip0_6961_2528">
      <rect width="20" height="20" fill="white" transform="matrix(-1 0 0 1 20 0)" />
    </clipPath>
  </defs>
</svg>

<svg width="20" height="20" viewBox="0 0 20 20" fill="none" xmlns="http://www.w3.org/2000/svg">
  <g clip-path="url(#a)">
    <path
      d="M4.063 7.264a1.21 1.21 0 0 1 0 2.42h-1.08a1.21 1.21 0 0 1 0-2.42zm2.589 5.086a1.21 1.21 0 1 0-1.712-1.71l-.764.763a1.21 1.21 0 0 0 1.712 1.712zm6.876-6.876a1.21 1.21 0 0 0-1.712-1.711l-.764.764a1.21 1.21 0 1 0 1.712 1.711zm-3.326-1.928a1.21 1.21 0 0 1-2.421 0v-1.08a1.21 1.21 0 0 1 2.42 0zM6 3.875a1.21 1.21 0 0 1-1.712 1.711l-.764-.764A1.21 1.21 0 1 1 5.236 3.11z"
      fill="#000" fill-opacity=".85" stroke="#fff" stroke-width=".8" stroke-linecap="round" stroke-linejoin="round" />
    <mask id="b" maskUnits="userSpaceOnUse" x="3.25" y="2.858" width="16.971" height="16.971" fill="#000">
      <path fill="#fff" d="M3.25 2.858h16.971v16.971H3.25z" />
      <path fill-rule="evenodd" clip-rule="evenodd"
        d="M6.223 6.249c-.85.85-.85 2.226 0 3.075l7.017 7.017c.849.85 2.226.85 3.075 0l.44-.44a2.175 2.175 0 0 0 0-3.075l-.128-.127-.007-.007-2.636-2.636-.008-.007-4.238-4.24a2.175 2.175 0 0 0-3.076 0zm4.042 4.482q.093-.123.204-.236l.44-.439q.111-.112.235-.204L8.42 7.128a.31.31 0 0 0-.44 0l-.439.439a.31.31 0 0 0 0 .44z" />
    </mask>
    <path fill-rule="evenodd" clip-rule="evenodd"
      d="M6.223 6.249c-.85.85-.85 2.226 0 3.075l7.017 7.017c.849.85 2.226.85 3.075 0l.44-.44a2.175 2.175 0 0 0 0-3.075l-.128-.127-.007-.007-2.636-2.636-.008-.007-4.238-4.24a2.175 2.175 0 0 0-3.076 0zm4.042 4.482q.093-.123.204-.236l.44-.439q.111-.112.235-.204L8.42 7.128a.31.31 0 0 0-.44 0l-.439.439a.31.31 0 0 0 0 .44z"
      fill="#000" fill-opacity=".85" />
    <path
      d="m6.223 9.324-.566.566zm0-3.075.566.566zm7.017 10.092.565-.566zm3.075 0-.566-.566zm.44-3.515.565-.565zm-.128-.127-.565.566-.003-.003zm-.007-.007-.566.566zm-2.636-2.636.566-.566zm-.008-.007-.562.568-.003-.003zm-4.238-4.24.565-.565zm-3.076 0-.565-.565zm3.807 4.686-.565-.565zm-.204.236.64.48a.8.8 0 0 1-1.205.085zm.644-.675.565.566zm.235-.204.566-.566a.8.8 0 0 1-.086 1.206zM8.42 7.128l-.566.565zm-.44 0-.565-.566zm-.439.439.566.566zm0 .44-.566.565zM5.657 9.89a2.975 2.975 0 0 1 0-4.207L6.79 6.815a1.375 1.375 0 0 0 0 1.944zm7.017 7.017L5.657 9.89 6.79 8.759l7.016 7.016zm4.207 0a2.974 2.974 0 0 1-4.207 0l1.131-1.132a1.374 1.374 0 0 0 1.944 0zm.439-.44-.44.44-1.13-1.132.439-.44zm0-4.206a2.975 2.975 0 0 1 0 4.206l-1.131-1.131a1.375 1.375 0 0 0 0-1.944zm-.127-.127.127.127-1.131 1.131-.127-.127zm-1.134 1.128-.005-.004 1.132-1.132.01.01zm-.005-.004-2.636-2.636L14.55 9.49l2.636 2.636zm-2.636-2.636-.004-.005L14.54 9.48l.01.01zm-3.115-5.378 4.24 4.239-1.132 1.131-4.239-4.239zm-4.206 0a2.975 2.975 0 0 1 4.206 0L9.172 6.375a1.375 1.375 0 0 0-1.944 0zm-.44.44.44-.44 1.131 1.131-.44.44zm5.378 5.377a1.4 1.4 0 0 0-.13.15l-1.28-.96q.126-.17.279-.321zm.44-.44-.44.44L9.904 9.93l.439-.44zm.149-.129a1.4 1.4 0 0 0-.15.13L10.343 9.49a3 3 0 0 1 .321-.278zm-1.046-.074L7.854 7.693l1.131-1.131 2.725 2.724zM7.854 7.693a.49.49 0 0 0 .692 0L7.415 6.562a1.11 1.11 0 0 1 1.57 0zm.692 0-.44.44L6.977 7l.439-.439zm-.44.44a.49.49 0 0 0 0-.692l-1.13 1.131a1.11 1.11 0 0 1 0-1.57zm0-.692 2.725 2.724L9.7 11.296 6.975 8.572z"
      fill="#fff" mask="url(#b)" />
  </g>
  <defs>
    <clipPath id="a">
      <path fill="#fff" d="M20 0H0v20h20z" />
    </clipPath>
  </defs>
</svg>
